X:1
T:Title
%%score 1 { 2 | 3 }
L:1/8
Q:1/4=108
M:6/8
K:G
V:1 treble nm="Grand Piano, Soprano"
V:2 bass nm="Choir Pad, Beaumont,  87.87 D"
V:3 bass 
V:1
 [B,D] [DG]2 [DG] [DG]2 | [DA] [GB]2 [GB] [GB]2 | [Gc] [Gd]2 [Gd] [Gd]2 | [Ge] [Gd]2- [Gd] [GB]2 | %4
w: By~Robert~Lowry,~1873 * * *||||
 [GB] [Fd]2 [FA] [FA]2 | [Fd] [Gd]2 [GB] [GB]2 | [GB] [Gd]2 [Ge] [Gd]2 | [GB] [FA]2- [FA] [Fd]2 | %8
w: ||||
 [Gd] [Ge]2 [Ge] [Ge]2 | [Ge] [Gd]2 [GB] [Gd]2 | [GB] [FA]2 [FA] [Fd]2 | [Ac] [GB]2- [GB] [Gd]2 | %12
w: ||||
 [Gd] [Ge]2 [Ge] [Ge]2 | [Ge] [Gd]2 [GB] [Gd]2 | [Gd] [Gd]2 G [GB]2 | [FA] [FA]2- [FA] G2- | G6 |] %17
w: |||||
V:2
 G, B,2 B, B,2 | C[K:treble] D2 D D2 | A, B,2[K:bass] B, B,2 | C B,2- B,[K:treble] D2 | D D2 D D2 | %5
 A, B,2 D D2 | D B,2 C B,2 | D D2- D D2 | B, C2 C C2 | C B,2 D B,2 | D D2 D D2 | D D2- D B,2 | %12
 B, C2 C C2 | C B,2 D B,2 | C D2 B, D2 | C C2- C B,2- | B,6 |] %17
V:3
 z G,2 G, G,2 | G, G,2 G, G,2 | G, G,2 G, G,2 | G, G,2- G, G,2 | G, D,2 D, D,2 | D, G,2 G, G,2 | %6
 G, G,2 G, G,2 | G, D,2- D, D,2 | G, C,2 C, C,2 | C, G,2 G, G,2 | G, D,2 D, D,2 | F, G,2- G, G,2 | %12
 G, C,2 C, C,2 | C, G,2 G, G,2 | C, B,,2 E, D,2 | D, D,2- D, G,,2- | G,,6 |] %17

